public/svg/youtube.svg

<svg width="42" height="43" viewBox="0 0 42 43" fill="none" xmlns="http://www.w3.org/2000/svg">
<path d="M18.3596 25.75L24.81 22L18.3596 18.25V25.75ZM32.727 15.9625C32.8886 16.55 33.0005 17.3375 33.075 18.3375C33.162 19.3375 33.1993 20.2 33.1993 20.95L33.2739 22C33.2739 24.7375 33.075 26.75 32.727 28.0375C32.4163 29.1625 31.6955 29.8875 30.5769 30.2C29.9927 30.3625 28.9239 30.475 27.2833 30.55C25.6676 30.6375 24.1886 30.675 22.8215 30.675L20.8453 30.75C15.6377 30.75 12.3939 30.55 11.1137 30.2C9.99518 29.8875 9.27432 29.1625 8.96361 28.0375C8.80203 27.45 8.69018 26.6625 8.61561 25.6625C8.52861 24.6625 8.49132 23.8 8.49132 23.05L8.41675 22C8.41675 19.2625 8.61561 17.25 8.96361 15.9625C9.27432 14.8375 9.99518 14.1125 11.1137 13.8C11.6979 13.6375 12.7667 13.525 14.4073 13.45C16.023 13.3625 17.502 13.325 18.8692 13.325L20.8453 13.25C26.0529 13.25 29.2967 13.45 30.5769 13.8C31.6955 14.1125 32.4163 14.8375 32.727 15.9625Z" fill="#EBDA9C"/>
<path d="M41 21.5C41 32.8442 32.0236 42 21 42C9.97636 42 1 32.8442 1 21.5C1 10.1559 9.97636 1 21 1C32.0236 1 41 10.1559 41 21.5Z" stroke="#EBDA9C" stroke-width="2"/>
</svg>

<svg width="42" height="43" fill="none" xmlns="http://www.w3.org/2000/svg"><path d="M18.36 25.75 24.81 22l-6.45-3.75v7.5Zm14.367-9.787c.162.587.274 1.374.348 2.374.087 1 .124 1.863.124 2.613l.075 1.05c0 2.738-.199 4.75-.547 6.038-.31 1.125-1.031 1.85-2.15 2.162-.584.163-1.653.275-3.294.35a82.363 82.363 0 0 1-4.462.125l-1.976.075c-5.207 0-8.451-.2-9.731-.55-1.119-.313-1.84-1.037-2.15-2.162-.162-.588-.274-1.375-.348-2.375-.087-1-.125-1.863-.125-2.613L8.417 22c0-2.738.199-4.75.547-6.037.31-1.125 1.031-1.85 2.15-2.163.584-.163 1.653-.275 3.293-.35a82.363 82.363 0 0 1 4.462-.125l1.976-.075c5.208 0 8.452.2 9.732.55 1.118.313 1.84 1.037 2.15 2.162Z" fill="#EBDA9C" fill-opacity=".67"/><path d="M41 21.5C41 32.844 32.024 42 21 42S1 32.844 1 21.5 9.976 1 21 1s20 9.156 20 20.5Z" stroke="#EBDA9C" stroke-opacity=".67" stroke-width="2"/></svg>
